X:1
T:MENUETT No. 1 mit TRIO
T:ALLEGRO in B♭ MAJOR
T:für das Pianoforte
T:W. A. Mozart
T:Köch. Verz. No. 3
C:W. A. Mozart
Z:Köch. Verz. No. 1
%%score { 1 | 2 }
L:1/8
Q:1/4=110
M:2/4
K:Bb
V:1 treble nm="Piano" snm="Pno."
V:2 bass 
V:1
 !tenuto!.f | (d!tenuto!.B)(A!tenuto!.c) | (B!tenuto!.F) z !tenuto!.F | %3
 !tenuto!.G!tenuto!.G!tenuto!.A!tenuto!.A | B2 z !tenuto!.F | %5
 !tenuto!.G!tenuto!.G!tenuto!.A!tenuto!.A | B2 z !tenuto!.d | (c!tenuto!.F)(=E!tenuto!.B) | %8
 (A!tenuto!.F) z !tenuto!.F |{/A} !tenuto!.G!tenuto!.^F!tenuto!.G!tenuto!.A | =F2 z !tenuto!.F | %11
 (G/^F/G/F/ !tenuto!.G)!tenuto!.A | =F3 :| !tenuto!.f | (f!tenuto!.d)(d!tenuto!.=B) | %15
 =B2 z !tenuto!.G | !tenuto!.c!tenuto!.G!tenuto!.d!tenuto!.G | e2 z !tenuto!.e | %18
 (e!tenuto!.c)(c!tenuto!.A) | A2 z !tenuto!.F | !tenuto!.B!tenuto!.F!tenuto!.c!tenuto!.F | %21
 d2 z !tenuto!.f | (d!tenuto!.B)(A!tenuto!.c) | (B!tenuto!.F) z !tenuto!.F | %24
 !tenuto!.G!tenuto!.G!tenuto!.A!tenuto!.A | B2 z !tenuto!.F | %26
 !tenuto!.G!tenuto!.G!tenuto!.A!tenuto!.A | B2 z !tenuto!.B | %28
{/d} !tenuto!.c!tenuto!.B!tenuto!.c!tenuto!.d | B2 z !tenuto!.B | %30
 (c/=B/c/B/ !tenuto!.c)!tenuto!.d | _B3 |] %32
V:2
 z | B,2 C2 | D2 z !tenuto!.D | !tenuto!.E!tenuto!.E!tenuto!.C!tenuto!.C | [B,D]2 z !tenuto!.D | %5
 !tenuto!.E!tenuto!.E!tenuto!.C!tenuto!.C | [B,D]2 z !tenuto!.B, | A,2 G,2 | F,2 z !tenuto!.F, | %9
 B,2 C2 | D2 z !tenuto!.A, | B,3 !tenuto!.C | F,3 :| z | z4 | G,2 F,2 | E,2 =B,,2 | C,2 z2 | z4 | %19
 F,2 E,2 | D,2 A,,2 | B,,2 z2 | B,2 C2 | D2 z !tenuto!.D | %24
 !tenuto!.E!tenuto!.E!tenuto!.C!tenuto!.C | [B,D]2 z !tenuto!.D | %26
 !tenuto!.E!tenuto!.E!tenuto!.C!tenuto!.C | [B,D]2 z !tenuto!.D, | E,2 F,2 | G,2 z !tenuto!.D, | %30
 E,3 !tenuto!.F, | B,,3 |] %32

